fixtures/lightroom-hdr-off.xmp
<x:xmpmeta xmlns:x="adobe:ns:meta/">
 <rdf:RDF xmlns:rdf="http://www.w3.org/1999/02/22-rdf-syntax-ns#">
  <rdf:Description rdf:about=""
   xmlns:crs="http://ns.adobe.com/camera-raw-settings/1.0/"
   crs:Exposure2012="+1.07"
   crs:HDREditMode="0"
   crs:CameraProfile="Camera CLASSIC CHROME"
   crs:WhiteBalance="As Shot"/>
 </rdf:RDF>
</x:xmpmeta>
